X: 1
T:The Highland Cradle Song
M:6/8
L:1/8
Q:80
C:
S:Slow Air
K:HP
|: {g}A{Gdc}d3/2e/2{g}f2{gf}g|
{fg}f3{gef}e3|
{g}A{GdG}c3/2d/2{gef}e2f|  !
{gef}ed3/2B/2{G}A3|
{g}A{Gdc}d3/2e/2{g}f2{gf}g|
{fg}f3{gef}e2a|  !
{g}aA{Gdc}d{gfg}f2e|
{Gdc}d2e/4{g}f/2e/4|1 {Gdc}d3:|2
{Gdc}d2|] |:  !
a|
{g}a{f}gB{GdG}B2g|
{f}g{a}fA{GAG}A2f|
{gfg}f{g}eG{gGd}G2e|  !
{gef}ed3/2B/2{G}A2a|
{g}a{f}gB{GdG}B2g|
{f}g{a}fA{GAG}A2f|  !
{gfg}fe3/2f/2{gf}gB3/2c/2|
{Gdc}d2e/4{g}f/2e/4{Gdc}d2:|
